apps/documenteditor/mobile/resources/icons/ios/icon-wrap-through.svg

<svg width="24" height="24" viewBox="0 0 24 24" xmlns="http://www.w3.org/2000/svg">
<path d="M22.75 20.7959C23.1642 20.796 23.5 21.1317 23.5 21.5459C23.4999 21.96 23.1641 22.2958 22.75 22.2959H1.75C1.33582 22.2959 1.00006 21.9601 1 21.5459C1 21.1317 1.33579 20.7959 1.75 20.7959H22.75ZM6.90039 16.7959C7.22259 17.4831 7.82882 18.0097 8.57031 18.2207C8.47283 18.2671 8.36512 18.2959 8.25 18.2959H1.75C1.33582 18.2959 1.00006 17.9601 1 17.5459C1 17.1317 1.33579 16.7959 1.75 16.7959H6.90039ZM22.75 16.7959C23.1642 16.796 23.5 17.1317 23.5 17.5459C23.4999 17.96 23.1641 18.2958 22.75 18.2959H15.3867C16.294 18.1742 17.0525 17.5943 17.4268 16.7959H22.75ZM6.64844 14.2959H1.75C1.33582 14.2959 1.00006 13.9601 1 13.5459C1 13.1317 1.33579 12.7959 1.75 12.7959H6.64844V14.2959ZM22.75 12.7959C23.1642 12.796 23.5 13.1317 23.5 13.5459C23.4999 13.96 23.1641 14.2958 22.75 14.2959H17.6787V12.7959H22.75ZM5.51172 8.7959C5.53208 9.2458 5.58848 9.74934 5.74707 10.2471C5.75229 10.2635 5.75825 10.2796 5.76367 10.2959H1.75C1.33582 10.2959 1.00006 9.96006 1 9.5459C1 9.13169 1.33579 8.7959 1.75 8.7959H5.51172ZM22.75 8.7959C23.1642 8.79596 23.5 9.13172 23.5 9.5459C23.4999 9.96002 23.1641 10.2958 22.75 10.2959H20.001C20.308 9.87856 20.4781 9.36609 20.4961 8.7959H22.75ZM13.3125 4.7959C12.9721 5.09355 12.7305 5.50483 12.6504 5.97852L12.5967 6.2959H8.35254C8.1138 6.19899 7.85194 6.14475 7.5752 6.14453C7.3021 6.14453 7.04087 6.19907 6.80078 6.2959H1.75C1.33582 6.2959 1.00006 5.96006 1 5.5459C1 5.13168 1.33579 4.7959 1.75 4.7959H13.3125ZM22.75 4.7959C23.1642 4.79596 23.5 5.13172 23.5 5.5459C23.4999 5.96002 23.1641 6.29584 22.75 6.2959H19.2432C19.0694 6.2246 18.8835 6.17677 18.6895 6.15625C18.6151 6.03427 18.5115 5.88357 18.373 5.74512C17.8962 5.26828 17.2477 4.99707 16.5693 4.99707H16.167C16.1042 4.9244 16.0353 4.85837 15.9639 4.7959H22.75ZM22.75 0.795898C23.1642 0.795959 23.5 1.13172 23.5 1.5459C23.4999 1.96002 23.1641 2.29584 22.75 2.2959H1.75C1.33582 2.2959 1.00006 1.96006 1 1.5459C1 1.13168 1.33579 0.795898 1.75 0.795898H22.75Z" fill="#444444"/>
<path d="M14.6416 6C14.8058 6.00004 14.959 6.07666 15.0576 6.20801L15.4277 6.70117H16.5693C16.8476 6.70117 17.1153 6.81258 17.3125 7.00977C17.5097 7.20697 17.707 7.84863 17.707 7.84863H18.4736C18.7649 7.84874 18.9989 8.08276 18.999 8.37402V8.90039C18.9988 9.86849 18.2144 10.1426 17.2461 10.1426H16.4365C16.2992 10.1427 16.1874 10.2542 16.1865 10.3916L16.1787 11.6055V15.8789C16.1787 16.5123 15.6656 17.0261 15.0322 17.0264C14.3986 17.0264 13.8848 16.5125 13.8848 15.8789V14.3408L10.4424 13.585V15.8789C10.4424 16.5124 9.92935 17.0262 9.2959 17.0264C8.6623 17.0264 8.14844 16.5125 8.14844 15.8789V11.29C7.08461 10.5401 7.00196 9.5455 7 8.42188C6.99954 8.10517 7.25847 7.84863 7.5752 7.84863C7.89176 7.84888 8.14287 8.10525 8.14355 8.42188C8.14535 9.26299 8.24975 10.1426 9.2959 10.1426H13.5L14.1289 6.43359C14.1706 6.18391 14.3875 6 14.6416 6Z" fill="#446ECA"/>
</svg>

<svg xmlns="http://www.w3.org/2000/svg" width="24" height="24" fill="none" viewBox="0 0 24 24">
  <g class="icon-wrap-through">
    <path fill="#444" d="M22.75 20.796a.75.75 0 0 1 0 1.5h-21a.75.75 0 0 1 0-1.5h21Zm-15.85-4a2.65 2.65 0 0 0 1.67 1.425.742.742 0 0 1-.32.075h-6.5a.75.75 0 0 1 0-1.5H6.9Zm15.85 0a.75.75 0 0 1 0 1.5h-7.363a2.644 2.644 0 0 0 2.04-1.5h5.323Zm-16.102-2.5H1.75a.75.75 0 0 1 0-1.5h4.898v1.5Zm16.102-1.5a.75.75 0 0 1 0 1.5h-5.071v-1.5h5.071Zm-17.238-4c.02.45.076.953.235 1.451l.017.049H1.75a.75.75 0 0 1 0-1.5h3.762Zm17.238 0a.75.75 0 0 1 0 1.5h-2.749c.307-.417.477-.93.495-1.5h2.254Zm-9.437-4c-.34.298-.583.709-.663 1.183l-.053.317H8.353a2.065 2.065 0 0 0-1.552 0H1.75a.75.75 0 0 1 0-1.5h11.563Zm9.437 0a.75.75 0 0 1 0 1.5h-3.507a2.016 2.016 0 0 0-.553-.14 2.197 2.197 0 0 0-.317-.41 2.552 2.552 0 0 0-1.804-.749h-.402a2.05 2.05 0 0 0-.203-.201h6.786Zm0-4a.75.75 0 0 1 0 1.5h-21a.75.75 0 0 1 0-1.5h21Z" class="icon-fill-gray-primary"/>
    <path fill="#446ECA" d="m14.129 6.434-.629 3.709H9.296c-1.047 0-1.15-.88-1.152-1.721a.57.57 0 0 0-.57-.574.575.575 0 0 0-.574.574c0 1.124.084 2.118 1.148 2.868v4.589a1.147 1.147 0 1 0 2.295 0v-2.294l3.441.755v1.539a1.147 1.147 0 1 0 2.295 0v-4.274l.008-1.214a.25.25 0 0 1 .25-.248h.81c.968 0 1.752-.275 1.752-1.243v-.526a.525.525 0 0 0-.526-.526h-.766s-.198-.64-.395-.838a1.052 1.052 0 0 0-.742-.309h-1.142l-.37-.493a.519.519 0 0 0-.93.226Z" class="icon-fill-blue-primary"/>
  </g>
</svg>
